img/icon/list-before-4.svg

<svg width="40" height="40" viewBox="0 0 40 40" fill="none" xmlns="http://www.w3.org/2000/svg">
<path fill-rule="evenodd" clip-rule="evenodd" d="M39.4141 19.4141H29.9798V18.0809H32.5252C32.8488 18.0809 33.1112 17.8186 33.1112 17.495C33.1112 17.1714 32.8488 16.9091 32.5252 16.9091H29.9798V15.5759H31.747C32.4054 15.5759 33.0244 15.3195 33.4898 14.854L37.3434 11.0004C37.5945 11.1255 37.8729 11.192 38.1616 11.192C38.6527 11.192 39.1144 11.0008 39.4616 10.6536C39.8089 10.3063 40.0002 9.84469 40.0002 9.35359C40.0002 8.8625 39.8089 8.40086 39.4616 8.05359C39.1145 7.70633 38.6527 7.51508 38.1616 7.51508C37.6705 7.51508 37.2089 7.70633 36.8616 8.05352C36.5144 8.40078 36.3231 8.86242 36.3231 9.35352C36.3231 9.64227 36.3897 9.92062 36.5148 10.1717L32.6612 14.0253C32.417 14.2695 32.0923 14.404 31.747 14.404H29.9798V13.1112C29.9798 11.4068 28.5931 10.0202 26.8888 10.0202H25.596V4.83313C26.3232 4.58789 26.8485 3.89984 26.8485 3.09094C26.8485 2.07719 26.0238 1.2525 25.0101 1.2525C23.9964 1.2525 23.1716 2.07727 23.1716 3.09094C23.1716 3.89984 23.697 4.58781 24.4241 4.83313V10.0202H23.091V7.47477C23.091 7.15117 22.8287 6.88883 22.5051 6.88883C22.1815 6.88883 21.9191 7.15117 21.9191 7.47477V10.0202H20.5859V0.585938C20.5859 0.262344 20.3236 0 20 0C19.6764 0 19.4141 0.262344 19.4141 0.585938V10.0202H18.0809V7.47477C18.0809 7.15117 17.8186 6.88883 17.495 6.88883C17.1714 6.88883 16.9091 7.15117 16.9091 7.47477V10.0202H15.5759V8.25305C15.5759 7.59469 15.3195 6.9757 14.854 6.51023L10.9991 2.65531C11.3396 1.96773 11.2255 1.11039 10.6537 0.538516C9.9368 -0.178281 8.77047 -0.178203 8.05367 0.538516C7.33687 1.25531 7.33687 2.42164 8.05367 3.13852C8.41211 3.49688 8.88289 3.67609 9.35367 3.67609C9.63398 3.67609 9.91383 3.61102 10.1705 3.48391L14.0254 7.33891C14.2696 7.58305 14.4041 7.90773 14.4041 8.25305V10.0202H13.1112C12.8499 10.0202 12.59 10.053 12.3387 10.1176C12.0254 10.1982 11.8367 10.5177 11.9173 10.8311C11.998 11.1445 12.3175 11.3332 12.6309 11.2525C12.7867 11.2124 12.9483 11.192 13.1112 11.192H26.8888C27.947 11.192 28.8079 12.053 28.8079 13.1111V26.8888C28.8079 27.0516 28.7876 27.213 28.7476 27.3687C28.667 27.6822 28.8558 28.0016 29.1691 28.0821C29.218 28.0947 29.2671 28.1007 29.3155 28.1007C29.5765 28.1007 29.8145 27.925 29.8825 27.6605C29.947 27.4095 29.9798 27.1498 29.9798 26.8888V25.5959H35.1668C35.412 26.3231 36.1001 26.8484 36.909 26.8484C37.9227 26.8484 38.7474 26.0238 38.7474 25.01C38.7474 23.9963 37.9227 23.1716 36.909 23.1716C36.1001 23.1716 35.4121 23.6969 35.1668 24.4241H29.9798V23.0909H32.5252C32.8488 23.0909 33.1111 22.8285 33.1111 22.5049C33.1111 22.1813 32.8488 21.919 32.5252 21.919H29.9798V20.5859H39.4141C39.7377 20.5859 40 20.3236 40 20C40 19.6764 39.7377 19.4141 39.4141 19.4141ZM37.6902 8.88227C37.8162 8.75633 37.9835 8.68703 38.1616 8.68703C38.3396 8.68703 38.507 8.75633 38.6329 8.88227C38.7588 9.0082 38.8281 9.17555 38.8281 9.35359C38.8281 9.53164 38.7588 9.69898 38.6329 9.82492C38.507 9.95086 38.3396 10.0202 38.1616 10.0202C37.9835 10.0202 37.8162 9.95086 37.6902 9.82492C37.5643 9.69898 37.495 9.53164 37.495 9.35359C37.495 9.17555 37.5643 9.00812 37.6902 8.88227ZM8.88219 2.30984C9.14219 2.56977 9.56508 2.56969 9.82492 2.30992C10.0848 2.05 10.0848 1.62711 9.82492 1.36719C9.695 1.23727 9.5243 1.17227 9.35359 1.17227C9.18281 1.17227 9.01219 1.23719 8.88219 1.36719C8.62227 1.62703 8.62227 2.04992 8.88219 2.30984ZM25.0101 3.7575C24.6426 3.7575 24.3435 3.45844 24.3435 3.09094C24.3435 2.72344 24.6425 2.42438 25.0101 2.42438C25.3777 2.42438 25.6766 2.72344 25.6766 3.09094C25.6766 3.45844 25.3776 3.7575 25.0101 3.7575ZM37.5756 25.0101C37.5756 24.6426 37.2766 24.3435 36.9091 24.3435C36.5415 24.3435 36.2424 24.6425 36.2425 25.0101C36.2425 25.3776 36.5416 25.6766 36.9091 25.6766C37.2766 25.6766 37.5756 25.3777 37.5756 25.0101ZM31.9464 36.8616C31.3746 36.2897 30.5172 36.1755 29.8296 36.5161L25.9747 32.6611C25.7305 32.417 25.596 32.0923 25.596 31.747V29.9798H26.8888C27.1502 29.9798 27.41 29.947 27.6612 29.8824C27.9745 29.8018 28.1632 29.4823 28.0826 29.1689C28.002 28.8555 27.6827 28.6669 27.3691 28.7475C27.2133 28.7876 27.0517 28.8079 26.8888 28.8079H13.1112C12.053 28.8079 11.1921 27.947 11.1921 26.8888V13.1112C11.1921 12.9483 11.2124 12.7867 11.2525 12.631C11.3332 12.3177 11.1445 11.9982 10.8312 11.9175C10.5177 11.8368 10.1983 12.0255 10.1177 12.3388C10.053 12.5899 10.0202 12.8498 10.0202 13.1112V14.404H4.83313C4.58789 13.6768 3.89984 13.1515 3.09094 13.1515C2.07719 13.1515 1.2525 13.9762 1.2525 14.9899C1.2525 16.0037 2.07727 16.8284 3.09094 16.8284C3.89984 16.8284 4.58781 16.303 4.83313 15.5759H10.0202V16.9091H7.47477C7.15117 16.9091 6.88883 17.1714 6.88883 17.495C6.88883 17.8186 7.15117 18.0809 7.47477 18.0809H10.0202V19.4141H0.585938C0.262344 19.4141 0 19.6764 0 20C0 20.3236 0.262344 20.5859 0.585938 20.5859H10.0202V21.9191H7.47477C7.15117 21.9191 6.88883 22.1814 6.88883 22.505C6.88883 22.8286 7.15117 23.0909 7.47477 23.0909H10.0202V24.4241H8.25297C7.59461 24.4241 6.97563 24.6805 6.51016 25.146L2.65656 28.9996C2.40547 28.8745 2.12711 28.808 1.83836 28.808C1.34727 28.808 0.885625 28.9992 0.538359 29.3464C0.19125 29.6937 0 30.1554 0 30.6464C0 31.1374 0.19125 31.5991 0.538516 31.9464C0.885703 32.2937 1.34742 32.4848 1.83852 32.4848C2.32961 32.4848 2.79125 32.2936 3.13852 31.9464C3.48578 31.5991 3.67703 31.1375 3.67703 30.6464C3.67703 30.3577 3.61047 30.0793 3.48539 29.8282L7.33898 25.9746C7.58313 25.7305 7.90781 25.5959 8.2532 25.5959H10.0204V26.8888C10.0204 28.5931 11.407 29.9797 13.1113 29.9797H14.4041V35.1667C13.677 35.412 13.1516 36.1 13.1516 36.9089C13.1516 37.9227 13.9764 38.7473 14.9901 38.7473C16.0037 38.7473 16.8285 37.9226 16.8285 36.9089C16.8285 36.1 16.3032 35.412 15.576 35.1667V29.9797H16.9091V32.5251C16.9091 32.8487 17.1715 33.111 17.4951 33.111C17.8187 33.111 18.081 32.8487 18.081 32.5251V29.9797H19.4141V39.4141C19.4141 39.7377 19.6764 40 20 40C20.3236 40 20.5859 39.7377 20.5859 39.4141V29.9798H21.9191V32.5252C21.9191 32.8488 22.1814 33.1112 22.505 33.1112C22.8286 33.1112 23.0909 32.8488 23.0909 32.5252V29.9798H24.4241V31.747C24.4241 32.4053 24.6805 33.0243 25.146 33.4898L29.0009 37.3447C28.6604 38.0323 28.7745 38.8896 29.3464 39.4615C29.7048 39.8199 30.1756 39.9991 30.6464 39.9991C31.1172 39.9991 31.588 39.8199 31.9464 39.4615C32.6632 38.7447 32.6632 37.5784 31.9464 36.8616ZM3.09094 15.6565C2.72336 15.6565 2.42438 15.3574 2.42438 14.9899C2.42438 14.6223 2.72344 14.3234 3.09094 14.3234C3.45844 14.3234 3.7575 14.6224 3.7575 14.9899C3.75758 15.3575 3.45852 15.6565 3.09094 15.6565ZM1.83844 31.313C2.01648 31.313 2.18383 31.2437 2.30977 31.1177C2.4357 30.9919 2.505 30.8245 2.505 30.6464C2.505 30.4684 2.4357 30.301 2.30977 30.1751C2.18383 30.0491 2.01648 29.9798 1.83844 29.9798C1.66039 29.9798 1.49305 30.0491 1.36711 30.1751C1.24117 30.301 1.17188 30.4684 1.17188 30.6464C1.17188 30.8245 1.24117 30.9918 1.36711 31.1177C1.49305 31.2437 1.66039 31.313 1.83844 31.313ZM15.6565 36.9091C15.6565 37.2766 15.3575 37.5756 14.9899 37.5756C14.6223 37.5756 14.3234 37.2766 14.3234 36.9091C14.3234 36.5416 14.6224 36.2425 14.9899 36.2425C15.3574 36.2425 15.6565 36.5416 15.6565 36.9091ZM30.1751 38.6329C30.435 38.8927 30.8579 38.8928 31.1178 38.6329C31.3777 38.373 31.3777 37.9501 31.1178 37.6902C30.9879 37.5603 30.8172 37.4953 30.6465 37.4953C30.4758 37.4953 30.3051 37.5603 30.1751 37.6902C29.9152 37.9501 29.9152 38.373 30.1751 38.6329ZM26.2223 18.4345C26.2223 17.1813 25.3057 16.1198 24.0509 15.7749C24.088 15.6217 24.1087 15.4641 24.1087 15.3031C24.1087 14.1167 23.0556 13.1515 21.7614 13.1515C21.0603 13.1515 20.4305 13.435 20.0001 13.8831C19.5696 13.435 18.9398 13.1515 18.2388 13.1515C16.9445 13.1515 15.8915 14.1167 15.8915 15.3031C15.8915 15.4641 15.9121 15.6217 15.9492 15.7749C14.6945 16.1198 13.7779 17.1812 13.7779 18.4345C13.7779 19.0469 13.9946 19.6247 14.395 20.1019C14.0035 20.6087 13.7779 21.2239 13.7779 21.8789C13.7777 22.8752 14.3101 23.8054 15.1869 24.3824V24.3838C15.1869 25.7429 16.3979 26.8486 17.8865 26.8486C18.742 26.8486 19.5052 26.483 20.0001 25.9145C20.495 26.483 21.2582 26.8486 22.1137 26.8486C23.5462 26.8486 24.7212 25.8244 24.8076 24.5359C25.6777 24.0311 26.2223 23.1468 26.2223 22.192C26.2223 21.4896 25.9228 20.8196 25.4074 20.3132C25.9227 19.8068 26.2223 19.1367 26.2223 18.4345ZM24.1485 20.8313C24.7131 21.1293 25.0502 21.638 25.0502 22.192C25.0502 22.605 24.8582 22.999 24.534 23.2936C24.2259 22.7232 23.6815 22.2691 22.9936 22.053C22.685 21.9561 22.356 22.1277 22.259 22.4364C22.162 22.7452 22.3337 23.0741 22.6423 23.171C23.2397 23.3587 23.6411 23.8462 23.6411 24.3839C23.6411 25.0968 22.9558 25.6768 22.1134 25.6768C21.271 25.6768 20.5857 25.0968 20.5857 24.3839V20.6263C20.5857 19.9134 21.271 19.3335 22.1134 19.3335C22.437 19.3335 22.6993 19.0712 22.6993 18.7476C22.6993 18.424 22.437 18.1616 22.1134 18.1616C21.5466 18.1616 21.0204 18.3223 20.5857 18.5958V17.8473C20.5857 17.5238 20.3234 17.2614 19.9998 17.2614C19.6762 17.2614 19.4138 17.5238 19.4138 17.8473V21.1002C19.2166 20.9765 19.0004 20.8741 18.7665 20.8005C18.4576 20.7035 18.1288 20.8752 18.0319 21.1838C17.9348 21.4926 18.1065 21.8215 18.4152 21.9185C19.0125 22.1063 19.4138 22.5937 19.4138 23.1313V24.3838C19.4138 25.0967 18.7285 25.6767 17.8862 25.6767C17.0438 25.6767 16.3584 25.0967 16.3584 24.3838C16.3584 24.0783 16.488 23.7812 16.7231 23.5475C16.9527 23.3194 16.9538 22.9484 16.7256 22.7188C16.4975 22.4893 16.1266 22.4882 15.897 22.7163C15.7566 22.8559 15.6358 23.0084 15.5353 23.1705C15.1653 22.8205 14.9493 22.3601 14.9493 21.8787C14.9493 21.0106 15.6306 20.248 16.6062 20.0241C16.9216 19.9518 17.1186 19.6374 17.0462 19.322C16.9739 19.0066 16.6595 18.8096 16.3441 18.882C15.9514 18.972 15.5898 19.1224 15.2692 19.3198C15.0613 19.0588 14.9494 18.753 14.9494 18.4343C14.9496 17.553 15.7851 16.8355 16.815 16.8287L16.8219 16.8291C16.8248 16.8293 16.8277 16.8295 16.8306 16.8295C16.9644 16.8295 17.0988 16.784 17.2089 16.6908C17.4335 16.5006 17.4786 16.178 17.3278 15.9352L17.3231 15.9274C17.3203 15.9228 17.3176 15.9182 17.3146 15.9137L17.3104 15.9082L17.3068 15.9034C17.2977 15.8906 17.2884 15.8781 17.2784 15.8661L17.2775 15.865C17.1798 15.7495 17.0631 15.5582 17.0631 15.303C17.0631 14.7628 17.5905 14.3233 18.2385 14.3233C18.8866 14.3233 19.4139 14.7628 19.4139 15.303C19.4139 15.6266 19.6763 15.889 19.9998 15.889C20.3234 15.889 20.5858 15.6266 20.5858 15.303C20.5858 14.7628 21.1131 14.3233 21.7612 14.3233C22.4092 14.3233 22.9366 14.7628 22.9366 15.303C22.9366 15.4474 22.8988 15.5705 22.8487 15.6718C22.5154 15.7033 22.193 15.7838 21.887 15.9129C21.5888 16.0386 21.4491 16.3823 21.5748 16.6805C21.7005 16.9786 22.0441 17.1185 22.3423 16.9927C22.5956 16.8859 22.8681 16.831 23.1523 16.8288L23.1594 16.8292C23.1626 16.8293 23.1659 16.8295 23.1691 16.8295C23.1721 16.8295 23.175 16.8293 23.1779 16.8291L23.1848 16.8287C24.2147 16.8354 25.0502 17.553 25.0502 18.4343C25.0502 18.9883 24.7131 19.4969 24.1485 19.7949C23.9563 19.8963 23.836 20.0958 23.836 20.3131C23.836 20.5305 23.9563 20.7299 24.1485 20.8313Z" fill="white"/>
</svg>

<svg width="40" height="40" fill="none" xmlns="http://www.w3.org/2000/svg"><path fill-rule="evenodd" clip-rule="evenodd" d="M39.414 19.414H29.98v-1.333h2.545a.586.586 0 100-1.172H29.98v-1.333h1.767c.658 0 1.277-.257 1.743-.722L37.343 11c.251.126.53.192.819.192.49 0 .952-.191 1.3-.538.347-.348.538-.81.538-1.3 0-.491-.191-.953-.538-1.3a1.826 1.826 0 00-1.3-.539c-.492 0-.953.191-1.3.539a1.827 1.827 0 00-.539 1.3c0 .288.067.567.192.818l-3.854 3.853a1.284 1.284 0 01-.914.379H29.98v-1.293a3.095 3.095 0 00-3.091-3.09h-1.293V4.832a1.841 1.841 0 001.253-1.742 1.84 1.84 0 00-1.839-1.839 1.84 1.84 0 00-1.838 1.839c0 .809.525 1.497 1.252 1.742v5.187h-1.333V7.475a.586.586 0 10-1.172 0v2.545h-1.333V.586a.586.586 0 10-1.172 0v9.434h-1.333V7.475a.586.586 0 10-1.172 0v2.545h-1.333V8.253c0-.658-.257-1.277-.722-1.743l-3.855-3.855A1.84 1.84 0 0010.654.54a1.84 1.84 0 00-2.6 0 1.84 1.84 0 000 2.6 1.833 1.833 0 002.117.345l3.854 3.855c.245.244.38.569.38.914v1.767H13.11c-.261 0-.521.033-.772.098a.586.586 0 00.292 1.134c.156-.04.317-.06.48-.06H26.89c1.058 0 1.919.861 1.919 1.92v13.777c0 .163-.02.324-.06.48a.586.586 0 101.134.291c.065-.25.098-.51.098-.771v-1.293h5.187a1.841 1.841 0 001.742 1.252 1.84 1.84 0 001.838-1.838 1.84 1.84 0 00-1.838-1.838c-.809 0-1.497.525-1.742 1.252H29.98v-1.333h2.545a.586.586 0 000-1.172H29.98v-1.333h9.434a.586.586 0 100-1.172zM37.69 8.882a.662.662 0 01.472-.195.662.662 0 01.666.667.662.662 0 01-.666.667.662.662 0 01-.472-.196.662.662 0 01-.195-.471c0-.178.07-.346.195-.472zM8.882 2.31a.667.667 0 10.943-.945.667.667 0 00-.943.945zM25.01 3.757a.667.667 0 11.002-1.334.667.667 0 01-.002 1.334zM37.576 25.01a.667.667 0 10-1.335.002.667.667 0 001.335-.002zm-5.63 11.852a1.84 1.84 0 00-2.116-.346l-3.855-3.855a1.284 1.284 0 01-.379-.914V29.98h1.293c.261 0 .521-.033.772-.098a.586.586 0 00-.292-1.135c-.156.04-.317.06-.48.06H13.11c-1.058 0-1.919-.86-1.919-1.918V13.11c0-.163.02-.324.06-.48a.586.586 0 00-1.134-.292 3.098 3.098 0 00-.098.772v1.293H4.833a1.841 1.841 0 00-1.742-1.252 1.84 1.84 0 00-1.839 1.838 1.84 1.84 0 001.839 1.838c.809 0 1.497-.525 1.742-1.252h5.187v1.333H7.475a.586.586 0 100 1.172h2.545v1.333H.586a.586.586 0 100 1.172h9.434v1.333H7.475a.586.586 0 100 1.172h2.545v1.333H8.253c-.658 0-1.277.256-1.743.722L2.657 29a1.83 1.83 0 00-.819-.192c-.49 0-.952.191-1.3.538a1.827 1.827 0 00-.538 1.3c0 .491.191.953.539 1.3.347.348.808.539 1.3.539.49 0 .952-.191 1.3-.539.347-.347.538-.809.538-1.3a1.83 1.83 0 00-.192-.818l3.854-3.853c.244-.245.569-.38.914-.38h1.767v1.294a3.094 3.094 0 003.091 3.09h1.293v5.188a1.841 1.841 0 00-1.252 1.742 1.84 1.84 0 001.838 1.838 1.84 1.84 0 001.838-1.838c0-.809-.525-1.497-1.252-1.742V29.98h1.333v2.545a.586.586 0 001.172 0V29.98h1.333v9.434a.586.586 0 101.172 0V29.98h1.333v2.545a.586.586 0 101.172 0V29.98h1.333v1.767c0 .658.256 1.277.722 1.743l3.855 3.855a1.84 1.84 0 00.345 2.117c.359.358.83.537 1.3.537.471 0 .942-.18 1.3-.538a1.84 1.84 0 000-2.6zM3.091 15.656a.667.667 0 11.002-1.334.667.667 0 01-.002 1.335zM1.838 31.314c.178 0 .346-.07.472-.195a.662.662 0 00.195-.472.662.662 0 00-.195-.47.662.662 0 00-.472-.196.662.662 0 00-.47.195.662.662 0 00-.196.471c0 .178.07.346.195.472a.662.662 0 00.471.195zm13.818 5.596a.667.667 0 11-1.334-.001.667.667 0 011.335.001zm14.52 1.724a.667.667 0 10.942-.945.667.667 0 00-.943.945zm-3.954-20.199c0-1.253-.916-2.314-2.171-2.66a2 2 0 00.058-.47c0-1.187-1.053-2.152-2.348-2.152-.7 0-1.33.283-1.76.731a2.438 2.438 0 00-1.762-.731c-1.294 0-2.348.965-2.348 2.151a2 2 0 00.058.472c-1.255.345-2.171 1.406-2.171 2.66 0 .612.217 1.19.617 1.667a2.897 2.897 0 00-.617 1.777c0 .996.532 1.926 1.409 2.503v.002c0 1.359 1.21 2.465 2.7 2.465.855 0 1.618-.366 2.113-.934a2.796 2.796 0 002.114.934c1.432 0 2.607-1.025 2.694-2.313.87-.505 1.414-1.39 1.414-2.344 0-.702-.3-1.372-.815-1.879.516-.506.815-1.176.815-1.878zm-2.074 2.397c.565.298.902.807.902 1.361 0 .413-.192.807-.516 1.102a2.63 2.63 0 00-1.54-1.241.586.586 0 00-.352 1.118c.598.188 1 .675 1 1.213 0 .713-.686 1.293-1.529 1.293-.842 0-1.527-.58-1.527-1.293v-3.758c0-.713.685-1.293 1.527-1.293a.586.586 0 100-1.171c-.566 0-1.093.16-1.527.434v-.749a.586.586 0 00-1.172 0V21.1a2.797 2.797 0 00-.648-.3.586.586 0 10-.35 1.119c.596.187.998.675.998 1.212v1.253c0 .713-.686 1.293-1.528 1.293s-1.528-.58-1.528-1.293c0-.306.13-.603.365-.837a.586.586 0 10-.826-.83c-.14.139-.261.291-.362.454-.37-.35-.586-.81-.586-1.292 0-.868.682-1.631 1.657-1.855a.586.586 0 10-.262-1.142c-.393.09-.754.24-1.075.438a1.413 1.413 0 01-.32-.886c0-.881.836-1.599 1.866-1.605h.016a.583.583 0 00.497-.894l-.005-.008-.008-.013-.005-.006-.003-.005a.61.61 0 00-.029-.037v-.001a.87.87 0 01-.215-.562c0-.54.527-.98 1.175-.98.649 0 1.176.44 1.176.98a.586.586 0 001.172 0c0-.54.527-.98 1.175-.98s1.176.44 1.176.98a.824.824 0 01-.088.369 3.253 3.253 0 00-.962.24.586.586 0 00.455 1.08c.254-.106.526-.161.81-.163h.033c1.03.006 1.865.724 1.865 1.605 0 .554-.337 1.063-.902 1.36a.586.586 0 000 1.037z" fill="#fff"/></svg>
